src/pos-icons/filter-remove-outline.svg

<svg height="24" viewBox="0 0 24 24" width="24" xmlns="http://www.w3.org/2000/svg"><path d="m14.73 20.83 2.85-2.83-2.85-2.83 1.42-1.41 2.85 2.81 2.8-2.81 1.42 1.41-2.81 2.83 2.81 2.83-1.42 1.41-2.8-2.84-2.85 2.84zm-1.73-.95c.04.3-.06.62-.29.83-.39.39-1.02.39-1.41 0l-4.01-4.01c-.23-.23-.33-.54-.29-.83v-5.12l-4.79-6.13c-.34-.43-.26-1.06.17-1.4.19-.14.4-.22.62-.22h14c.22 0 .43.08.62.22.43.34.51.97.17 1.4l-4.79 6.13zm-7.96-14.88 3.96 5.06v5.52l2 2v-7.53l3.96-5.05z"/></svg>

<?xml version="1.0" encoding="UTF-8"?><!DOCTYPE svg PUBLIC "-//W3C//DTD SVG 1.1//EN" "http://www.w3.org/Graphics/SVG/1.1/DTD/svg11.dtd"><svg xmlns="http://www.w3.org/2000/svg" xmlns:xlink="http://www.w3.org/1999/xlink" version="1.1" id="mdi-filter-remove-outline" width="24" height="24" viewBox="0 0 24 24"><path d="M14.73,20.83L17.58,18L14.73,15.17L16.15,13.76L19,16.57L21.8,13.76L23.22,15.17L20.41,18L23.22,20.83L21.8,22.24L19,19.4L16.15,22.24L14.73,20.83M13,19.88C13.04,20.18 12.94,20.5 12.71,20.71C12.32,21.1 11.69,21.1 11.3,20.71L7.29,16.7C7.06,16.47 6.96,16.16 7,15.87V10.75L2.21,4.62C1.87,4.19 1.95,3.56 2.38,3.22C2.57,3.08 2.78,3 3,3V3H17V3C17.22,3 17.43,3.08 17.62,3.22C18.05,3.56 18.13,4.19 17.79,4.62L13,10.75V19.88M5.04,5L9,10.06V15.58L11,17.58V10.05L14.96,5H5.04Z" /></svg>
